public/images/hero.svg

<svg xmlns="http://www.w3.org/2000/svg" width="750" height="741" fill="none"><g clip-path="url(#a)"><path fill="#132136" d="M0 805.547a1828.4 1828.4 0 0 1 363.618-.953c19.894 1.938 40.359 4.157 59.585-1.191 21.181-5.89 38.997-20.707 51.237-38.572 12.242-17.869 19.335-38.658 24.005-59.663 7.149-32.129 8.776-66.378-2.684-97.296-14.207-38.331-46.517-67.111-77.667-94.267-36.735-32.015-73.495-64.058-112.163-93.823-21.896-16.856-47.217-33.798-74.983-31.292-3.266.292-7.782 13.646-4.778 12.368-10.21 25.452-9.284 62.29 1.88 87.355 6.776 15.212 11.093 17.837 17.299 33.278s13.142 37.917 2.381 50.753c-8.717 10.404-23.199 14.329-36.908 15.576-13.712 1.248-27.741.429-41.044 3.904-24.905 6.512-44.485 29.134-46.89 54.189-1.29 13.426 1.655 28.101-5.566 39.6-9.162 14.588-29.436 16.598-46.166 21.717-40.154 12.288-69.11 53.019-66.838 94.026z"/><path fill="#132136" d="M230.757 370.084c-15.272 43.857-16.792 94.501 6.975 134.599 19.523 32.927 53.713 55.212 89.292 70.763 9.298 4.063 19.731 7.808 29.456 4.847 10.376-3.16 16.882-12.996 21.953-22.375 39.488-73.016 44.71-162.865 13.934-239.771-7.877-19.682-18.291-38.925-34.253-53.204-11.624-10.399-30.412-21.32-46.929-19.823-13.94 1.266-17.403 12.76-23.818 23.142-20.688 33.479-43.562 64.354-56.61 101.822"/><path fill="#FEECE4" d="M446.756 659.673c-.62 6.229-1.779 12.896-6.096 19.365-4.905 7.349-13.055 13.235-20.809 18.726q-53.414 37.824-106.827 75.652 124.491 10.056 248.981 20.118c9.842.791 21.925.803 31.701-7.23 6.243-5.131 9.494-12.02 12.349-18.403 12.56-28.061 114.039 22.191 116.709-4.301 3.448-34.259-166.057-152.404-190.924-249.367-.757-2.942-4.958-3.967-8.804-3.959-5.537.012-11.936 4.107-17.564 7.979a1408 1408 0 0 0-68.039 49.85c-3.736 2.91-17.928 11.921-19.509 15.82-2.532 6.268 9.551 5.084 13.447 7.256 8.479 4.739 10.671 17.742 12.88 26.904 3.098 12.868 3.969 26.88 2.505 41.59"/><path fill="#E7A38B" d="M496.224 640.943c10.536 26.231 29.553 49.147 53.654 64.656 8.123 5.227 16.814 9.646 24.438 15.54 7.624 5.896 14.28 13.605 16.453 22.858 2.711 11.541-1.858 23.393-6.351 34.392 34.285 13.103 71.678 18.148 108.391 15.409 6.719-.501 13.552-1.294 19.681-4.031 6.126-2.738 11.525-7.732 13.118-14.122 1.223-4.902.125-10.046-1.144-14.937-10.283-39.667-32.13-76.412-62.313-104.81-25.396-23.896-56.085-41.626-86.465-59.131q-24.32-14.012-48.637-28.02c-7.23-4.166-29.203-22.599-36.216-15.278-6.12 6.392-4.305 29.567-4.284 37.516.047 17.042 3.303 34.086 9.675 49.958"/><path fill="#E7A38B" d="M429.478 590.48c.735.194 1.387.418 1.896.701 8.477 4.737 10.669 17.741 12.878 26.902.45 1.879.842 3.792 1.2 5.719 12.298-13.506 32.42-35.454 34.875-38.403 10.839-13.02 28.702-28.052 27.077-46.118-17.673 3.987-35.787 15.543-50.132 26.079a185.8 185.8 0 0 0-27.794 25.12"/><path fill="#FEECE4" d="M540.473 450.284c-1.233-32.135-13.127-63.618-31.488-90.419-18.442-26.922-43.635-49.561-73.148-63.648-29.517-14.087-63.364-19.377-95.196-13.346-12.982 2.459-25.917 6.948-35.735 15.616-9.817 8.671-11.9 10.763-15.962 37.232-.993 21.631-6.651 54.106-6.651 75.448 15.375 22.27 27.059 34.001 23.396 55.999-9.635 57.886-30.19 60.719-17.293 63.494 7.179 1.543 16.884 2.469 22.948 6.644 3.567 2.457 1.256 8.876 1.156 10.921-.1 2.047-.797 4.019-1.749 5.822-.522.987-1.135 1.986-1.187 3.109-.077 1.788 1.302 3.345 2.788 4.387 1.488 1.041 4.176 3.556 7.053 4.82-1.487 3.555-4.458 9.523-2.302 12.791 1.485 2.254 3.976 3.683 6.377 4.934 8.892 4.618 7.402 27.529 7.965 32.383.562 4.851 2.468 9.915 6.554 12.691 3.449 2.341 8.086 3.153 11.977 1.812 42.175-14.509 69.142-29.234 77.996-33.891 4.202-2.207 44.172-23.801 83.602-55.915 24.811-20.207 30.133-58.75 28.899-90.884"/><path fill="#E7A38B" d="M332.052 381.556c16.568 5.44 34.433 5.666 51.472 9.477 17.042 3.809 34.587 12.608 41.147 28.423 5.284 12.741 2.334 27.096.525 40.729-1.81 13.636-1.848 29.023 7.597 39.225 7.523 8.121 19.257 10.923 28.593 16.991 17.42 11.312 24.859 35.231 16.825 54.084 17.372-5.661 28.644-25.179 24.607-42.61-5.221-22.556-30.335-35.237-40.711-56.026-10.019-20.076-4.779-44.276-11.049-65.753-4.695-16.093-15.854-30.011-29.777-39.775s-30.492-15.556-47.388-18.398c-16.046-2.704-32.411-2.835-48.693-2.961-5.622-.043-18.747-2.601-23.634.116-4.766 2.647-2.185 8.674-.269 12.53 5.862 11.795 18.339 19.878 30.755 23.948"/><path fill="#132136" d="M259.904 319.656c29.566-27.808 17.731-78.439 40.79-111.599 16.906-24.307 48.888-33.83 78.835-36.846 29.945-3.019 60.836-1.349 89.399-10.634 39.497-12.843 68.846-44.59 97.224-74.314 28.377-29.727 60.16-60.042 100.917-68.333 32.245-6.557 65.417 1.693 98.148 5.284 32.735 3.589 69.584 1.045 92.739-21.816 9.258 67.58 7.211 135.164-6.712 201.977-17.734 85.13 6.729 173.007 1.439 259.726-5.29 86.716-21.762 173.663-58.53 252.78-89.442-68.968-180.233-139.307-245.474-230.53-23.692-33.128-43.802-68.749-69.906-100.105-26.103-31.355-59.55-58.868-99.719-68.64-39.61-9.633-79.259-5.417-119.15 3.05"/><path fill="#132136" d="M746.519 773.313c-28.423 3.363-61.88-3.003-75.864-27.384-10.287-17.937-7.218-40.995-17.55-58.913-12.444-21.587-40.01-29.251-64.939-33.909s-52.391-9.56-68.38-28.802c-24.518-29.498-10.284-78.868-37.542-105.982-14.6-14.526-39.188-20.138-46.874-39.054-7.717-18.989 6.41-40.588 1.882-60.53-4.434-19.539-25.46-31.32-45.616-35-20.158-3.683-41.122-1.763-61.133-6.146-20.005-4.384-40.368-17.91-42.637-37.798-2.778-24.397-6.057-50.294 14.154-64.91s47.083-17.353 72.137-15.151c87.488 7.691 162.988 69.687 204.282 145.344 26.524 48.594 42.405 104.659 83.129 142.762 27.128 25.38 62.942 40.317 90.857 64.871 24.371 21.434 42.057 50.007 50.167 81.027 5.189 19.843 6.193 42.04-4.411 59.709-10.607 17.672-33.731 30.505-51.662 19.866"/><path fill="#132136" d="m488.851 496.175 5.738 76.035c1.346 17.849 2.72 35.851 7.609 53.025 4.893 17.174 13.632 33.682 27.323 44.642 11.609 9.294 25.919 14.017 39.554 19.651 13.635 5.631 27.452 12.831 35.886 25.258 8.433 12.433 9.474 31.387-1.308 41.69 15.512 2.538 30.664 7.096 46.173 9.634 7.993-18.91 3.979-41.74-7.123-58.887-11.106-17.148-28.437-29.143-46.833-37.14-25.23-10.972-55.468-17.024-70.264-40.834-12.419-19.983-9.472-45.724-8.568-69.456.908-23.732-8.764-50.94-28.187-63.618M491.633 138.019c51.144-32.858 66.082-100.892 112.022-140.394 21.721-18.676 49.316-29.88 77.528-36.206 28.215-6.326 57.265-8.05 86.159-9.755 6.082-.359 12.504-.651 17.923 2.069 9.367 4.708 12.205 16.523 11.881 26.799-.322 10.275-2.709 20.829.38 30.659-31.915-15.684-67.868-24.285-103.522-21.94-35.654 2.343-70.889 16.06-96.518 40.358-24.386 23.121-38.949 54.136-58.834 81.048-28.959 39.189-69.88 69.846-116.157 87.017-17.495 6.491-36.275 11.005-55.105 10.44-10.479-.312-44.15-3.151-26.267-17.593 25.678-20.736 65.54-23.81 96.661-31.479 18.791-4.63 37.538-10.544 53.849-21.023"/><path fill="#0A121D" d="M328.825 466.91a47.5 47.5 0 0 0 2.78-24.536c-.564 13.132-6.278 25.989-15.72 35.362 3.944-1.06 7.568-3.231 10.325-6.181a41 41 0 0 1-8.874 12.698 39.2 39.2 0 0 0 12.616-9.18 39.9 39.9 0 0 1-8.323 12.012c5.848-1.934 10.9-6.056 13.878-11.332-.339 4.933-2.693 9.712-6.432 13.052 6.069-3.402 11.248-8.301 14.918-14.114.529 4.399-.901 8.988-3.852 12.354 5.886-2.704 10.604-7.741 12.832-13.708.305 4.257-.851 8.604-3.242 12.18 4.188-3.383 7.231-8.097 8.549-13.242q-.64 5.74-1.277 11.479c4.106-4.296 7.122-9.581 8.706-15.25a19.83 19.83 0 0 1-.92 12.889c4.484-4.109 7.273-9.935 7.625-15.927a24.1 24.1 0 0 1-.407 13.033c4.056-4.491 6.085-10.666 5.458-16.618a27.1 27.1 0 0 1 .214 14.057c3.3-2.167 4.709-6.205 5.371-10.031.664-3.829.822-7.826 2.517-11.339 1.916-3.964 14.354-17.416 13.619-21.743.591 3.467-17.02 18.818-21.466 21.813-8.983 6.059-19.371 10.148-30.157 11.835-6.189.966-12.509 1.14-18.738.437M356.792 399.905c17.178-2.521 35.058 3.959 47.859 15.418-15.351-6.244-32.171-10.4-48.589-7.811-16.431 2.59-31.53 12.773-37.262 28.336-.11-17.311 20.728-35.267 37.992-35.943"/><path fill="#B22C24" d="M351.439 559.625c-5.128-1.37-10.251-2.738-15.378-4.104q-6.65-1.779-13.305-3.553c-2.156-.576-4.344-1.091-6.476-1.76-1.273-.399-4.691 2.254-5.53 3.84-.522.987-1.137 1.985-1.187 3.109-.077 1.788 1.302 3.344 2.788 4.386 1.488 1.045 4.175 3.557 7.05 4.821-1.484 3.554-4.455 9.523-2.299 12.791 1.484 2.254 3.976 3.683 6.377 4.934 1.358.704 24.583-18.941 27.96-24.464"/><path fill="#F04A2F" d="M351.439 559.625s-13.092 7.124-32.038 6.739c-1.484 3.554-4.455 9.523-2.299 12.791 1.484 2.254 3.976 3.683 6.377 4.934 1.358.704 21.207-7.739 27.96-24.464"/></g><defs><clipPath id="a"><path fill="#fff" d="M0 0h750v740.991H0z"/></clipPath></defs></svg>

<svg width="750" height="741" viewBox="0 0 750 741" fill="none" xmlns="http://www.w3.org/2000/svg">
<g clip-path="url(#clip0_199_2)">
<path d="M0 805.547C120.75 793.148 242.803 792.829 363.618 804.594C383.512 806.532 403.977 808.751 423.203 803.403C444.384 797.513 462.2 782.696 474.44 764.831C486.682 746.962 493.775 726.173 498.445 705.168C505.594 673.039 507.221 638.79 495.761 607.872C481.554 569.541 449.244 540.761 418.094 513.605C381.359 481.59 344.599 449.547 305.931 419.782C284.035 402.926 258.714 385.984 230.948 388.49C227.682 388.782 223.166 402.136 226.17 400.858C215.96 426.31 216.886 463.148 228.05 488.213C234.826 503.425 239.143 506.05 245.349 521.491C251.555 536.932 258.491 559.408 247.73 572.244C239.013 582.648 224.531 586.573 210.822 587.82C197.11 589.068 183.081 588.249 169.778 591.724C144.873 598.236 125.293 620.858 122.888 645.913C121.598 659.339 124.543 674.014 117.322 685.513C108.16 700.101 87.8856 702.111 71.1555 707.23C31.0025 719.518 2.04595 760.249 4.31755 801.256L0 805.547Z" fill="#132136"/>
<path d="M230.757 370.084C215.485 413.941 213.965 464.585 237.732 504.683C257.255 537.61 291.445 559.895 327.024 575.446C336.322 579.509 346.755 583.254 356.48 580.293C366.856 577.133 373.362 567.297 378.433 557.918C417.921 484.902 423.143 395.053 392.367 318.147C384.49 298.465 374.076 279.222 358.114 264.943C346.49 254.544 327.702 243.623 311.185 245.12C297.245 246.386 293.782 257.88 287.367 268.262C266.679 301.741 243.805 332.616 230.757 370.084Z" fill="#132136"/>
<path d="M446.756 659.673C446.136 665.902 444.977 672.569 440.66 679.038C435.755 686.387 427.605 692.273 419.851 697.764C384.241 722.981 348.633 748.197 313.024 773.416C396.017 780.121 479.013 786.825 562.005 793.534C571.847 794.325 583.93 794.337 593.706 786.304C599.949 781.173 603.2 774.284 606.055 767.901C618.615 739.84 720.094 790.092 722.764 763.6C726.212 729.341 556.707 611.196 531.84 514.233C531.083 511.291 526.882 510.266 523.036 510.274C517.499 510.286 511.1 514.381 505.472 518.253C490.338 528.659 475.389 539.376 460.655 550.381C452.852 556.21 445.11 562.116 437.433 568.103C433.697 571.013 419.505 580.024 417.924 583.923C415.392 590.191 427.475 589.007 431.371 591.179C439.85 595.918 442.042 608.921 444.251 618.083C447.349 630.951 448.22 644.963 446.756 659.673Z" fill="#FEECE4"/>
<path d="M496.224 640.943C506.76 667.174 525.777 690.09 549.878 705.599C558.001 710.826 566.692 715.245 574.316 721.139C581.94 727.035 588.596 734.744 590.769 743.997C593.48 755.538 588.911 767.39 584.418 778.389C618.703 791.492 656.096 796.537 692.809 793.798C699.528 793.297 706.361 792.504 712.49 789.767C718.616 787.029 724.015 782.035 725.608 775.645C726.831 770.743 725.733 765.599 724.464 760.708C714.181 721.041 692.334 684.296 662.151 655.898C636.755 632.002 606.066 614.272 575.686 596.767C559.473 587.427 543.26 578.085 527.049 568.747C519.819 564.581 497.846 546.148 490.833 553.469C484.713 559.861 486.528 583.036 486.549 590.985C486.596 608.027 489.852 625.071 496.224 640.943Z" fill="#E7A38B"/>
<path d="M429.478 590.48C430.213 590.674 430.865 590.898 431.374 591.181C439.851 595.918 442.043 608.922 444.252 618.083C444.702 619.962 445.094 621.875 445.452 623.802C457.75 610.296 477.872 588.348 480.327 585.399C491.166 572.379 509.029 557.347 507.404 539.281C489.731 543.268 471.617 554.824 457.272 565.36C447.167 572.782 437.847 581.224 429.478 590.48Z" fill="#E7A38B"/>
<path d="M540.473 450.284C539.24 418.149 527.346 386.666 508.985 359.865C490.543 332.943 465.35 310.304 435.837 296.217C406.32 282.13 372.473 276.84 340.641 282.871C327.659 285.33 314.724 289.819 304.906 298.487C295.089 307.158 293.006 309.25 288.944 335.719C287.951 357.35 282.293 389.825 282.293 411.167C297.668 433.437 309.352 445.168 305.689 467.166C296.054 525.052 275.499 527.885 288.396 530.66C295.575 532.203 305.28 533.129 311.344 537.304C314.911 539.761 312.6 546.18 312.5 548.225C312.4 550.272 311.703 552.244 310.751 554.047C310.229 555.034 309.616 556.033 309.564 557.156C309.487 558.944 310.866 560.501 312.352 561.543C313.84 562.584 316.528 565.099 319.405 566.363C317.918 569.918 314.947 575.886 317.103 579.154C318.588 581.408 321.079 582.837 323.48 584.088C332.372 588.706 330.882 611.617 331.445 616.471C332.007 621.322 333.913 626.386 337.999 629.162C341.448 631.503 346.085 632.315 349.976 630.974C392.151 616.465 419.118 601.74 427.972 597.083C432.174 594.876 472.144 573.282 511.574 541.168C536.385 520.961 541.707 482.418 540.473 450.284Z" fill="#FEECE4"/>
<path d="M332.052 381.556C348.62 386.996 366.485 387.222 383.524 391.033C400.566 394.842 418.111 403.641 424.671 419.456C429.955 432.197 427.005 446.552 425.196 460.185C423.386 473.821 423.348 489.208 432.793 499.41C440.316 507.531 452.05 510.333 461.386 516.401C478.806 527.713 486.245 551.632 478.211 570.485C495.583 564.824 506.855 545.306 502.818 527.875C497.597 505.319 472.483 492.638 462.107 471.849C452.088 451.773 457.328 427.573 451.058 406.096C446.363 390.003 435.204 376.085 421.281 366.321C407.357 356.558 390.789 350.765 373.893 347.923C357.847 345.219 341.482 345.088 325.2 344.962C319.578 344.919 306.453 342.361 301.566 345.078C296.8 347.725 299.381 353.752 301.297 357.608C307.159 369.403 319.636 377.486 332.052 381.556Z" fill="#E7A38B"/>
<path d="M259.904 319.656C289.47 291.848 277.635 241.217 300.694 208.057C317.6 183.75 349.582 174.227 379.529 171.211C409.474 168.192 440.365 169.862 468.928 160.577C508.425 147.734 537.774 115.987 566.152 86.2627C594.529 56.5356 626.312 26.2207 667.069 17.9301C699.314 11.3731 732.486 19.6232 765.217 23.214C797.952 26.8025 834.801 24.2587 857.956 1.39839C867.214 68.9784 865.167 136.562 851.244 203.375C833.51 288.505 857.973 376.382 852.683 463.101C847.393 549.817 830.921 636.764 794.153 715.881C704.711 646.913 613.92 576.574 548.679 485.351C524.987 452.223 504.877 416.602 478.773 385.246C452.67 353.891 419.223 326.378 379.054 316.606C339.444 306.973 299.795 311.189 259.904 319.656Z" fill="#132136"/>
<path d="M746.519 773.313C718.096 776.676 684.639 770.31 670.655 745.929C660.368 727.992 663.437 704.934 653.105 687.016C640.661 665.429 613.095 657.765 588.166 653.107C563.237 648.449 535.775 643.547 519.786 624.305C495.268 594.807 509.502 545.437 482.244 518.323C467.644 503.797 443.056 498.185 435.37 479.269C427.653 460.28 441.78 438.681 437.252 418.739C432.818 399.2 411.792 387.419 391.636 383.739C371.478 380.056 350.514 381.976 330.503 377.593C310.498 373.209 290.135 359.683 287.866 339.795C285.088 315.398 281.809 289.501 302.02 274.885C322.23 260.269 349.103 257.532 374.157 259.734C461.645 267.425 537.145 329.421 578.439 405.078C604.963 453.672 620.844 509.737 661.568 547.84C688.696 573.22 724.51 588.157 752.425 612.711C776.796 634.145 794.482 662.718 802.592 693.738C807.781 713.581 808.785 735.778 798.181 753.447C787.574 771.119 764.45 783.952 746.519 773.313Z" fill="#132136"/>
<path d="M488.851 496.175C490.764 521.52 492.676 546.864 494.589 572.21C495.935 590.059 497.309 608.061 502.198 625.235C507.091 642.409 515.83 658.917 529.521 669.877C541.13 679.171 555.44 683.894 569.075 689.528C582.71 695.159 596.527 702.359 604.961 714.786C613.394 727.219 614.435 746.173 603.653 756.476C619.165 759.014 634.317 763.572 649.826 766.11C657.819 747.2 653.805 724.37 642.703 707.223C631.597 690.075 614.266 678.08 595.87 670.083C570.64 659.111 540.402 653.059 525.606 629.249C513.187 609.266 516.134 583.525 517.038 559.793C517.946 536.061 508.274 508.853 488.851 496.175Z" fill="#132136"/>
<path d="M491.633 138.019C542.777 105.161 557.715 37.1271 603.655 -2.37519C625.376 -21.0512 652.971 -32.2557 681.183 -38.5815C709.398 -44.9069 738.448 -46.6316 767.342 -48.3363C773.424 -48.6949 779.846 -48.9874 785.265 -46.2674C794.632 -41.5589 797.47 -29.744 797.146 -19.4683C796.824 -9.19265 794.437 1.36073 797.526 11.1908C765.611 -4.4934 729.658 -13.0937 694.004 -10.7495C658.35 -8.40564 623.115 5.31064 597.486 29.6092C573.1 52.7304 558.537 83.7454 538.652 110.657C509.693 149.846 468.772 180.503 422.495 197.674C405 204.165 386.22 208.679 367.39 208.114C356.911 207.802 323.24 204.963 341.123 190.521C366.801 169.785 406.663 166.711 437.784 159.042C456.575 154.412 475.322 148.498 491.633 138.019Z" fill="#132136"/>
<path d="M328.825 466.91C331.896 459.15 332.861 450.604 331.605 442.374C331.041 455.506 325.327 468.363 315.885 477.736C319.829 476.676 323.453 474.505 326.21 471.555C324.107 476.284 321.078 480.618 317.336 484.253C322.119 482.064 326.438 478.922 329.952 475.073C327.96 479.526 325.123 483.622 321.629 487.085C327.477 485.151 332.529 481.029 335.507 475.753C335.168 480.686 332.814 485.465 329.075 488.805C335.144 485.403 340.323 480.504 343.993 474.691C344.522 479.09 343.092 483.679 340.141 487.045C346.027 484.341 350.745 479.304 352.973 473.337C353.278 477.594 352.122 481.941 349.731 485.517C353.919 482.134 356.962 477.42 358.28 472.275C357.854 476.1 357.426 479.929 357.003 483.754C361.109 479.458 364.125 474.173 365.709 468.504C366.853 472.744 366.524 477.347 364.789 481.393C369.273 477.284 372.062 471.458 372.414 465.466C373.477 469.74 373.338 474.295 372.007 478.499C376.063 474.008 378.092 467.833 377.465 461.881C378.77 466.444 378.846 471.34 377.679 475.938C380.979 473.771 382.388 469.733 383.05 465.907C383.714 462.078 383.872 458.081 385.567 454.568C387.483 450.604 399.921 437.152 399.186 432.825C399.777 436.292 382.166 451.643 377.72 454.638C368.737 460.697 358.349 464.786 347.563 466.473C341.374 467.439 335.054 467.613 328.825 466.91Z" fill="#0A121D"/>
<path d="M356.792 399.905C373.97 397.384 391.85 403.864 404.651 415.323C389.3 409.079 372.48 404.923 356.062 407.512C339.631 410.102 324.532 420.285 318.8 435.848C318.69 418.537 339.528 400.581 356.792 399.905Z" fill="#0A121D"/>
<path d="M351.439 559.625C346.311 558.255 341.188 556.887 336.061 555.521C331.628 554.335 327.192 553.151 322.756 551.968C320.6 551.392 318.412 550.877 316.28 550.208C315.007 549.809 311.589 552.462 310.75 554.048C310.228 555.035 309.613 556.033 309.563 557.157C309.486 558.945 310.865 560.501 312.351 561.543C313.839 562.588 316.526 565.1 319.401 566.364C317.917 569.918 314.946 575.887 317.102 579.155C318.586 581.409 321.078 582.838 323.479 584.089C324.837 584.793 348.062 565.148 351.439 559.625Z" fill="#B22C24"/>
<path d="M351.439 559.625C351.439 559.625 338.347 566.749 319.401 566.364C317.917 569.918 314.946 575.887 317.102 579.155C318.586 581.409 321.078 582.838 323.479 584.089C324.837 584.793 344.686 576.35 351.439 559.625Z" fill="#F04A2F"/>
</g>
<defs>
<clipPath id="clip0_199_2">
<rect width="750" height="740.991" fill="white"/>
</clipPath>
</defs>
</svg>
